X: 305678
M: 6/8
L: 1/8
K: C
g & z |\
g6 & z2z GAB | e2x x3 & c2c cde | f2e d2c | x3 x2g & BcA Ggz  |\
g6 & z2z GAB | e2x x3 & c2c cde | fed g2G | c3 c2 H|]
d |\
dBd dBd | d2c A2c | BdB dcA | GDG ADd |\
dBd dBd | d2c A2c | c>BA d2^F | G3 "^D.C."G2 |]
c |\
c2c B2A | A2G G2G | GEG FDF | EDE D2c |\
c2B A2G | F2F f2f | ege fdB | c3 "^D.C."c2 |]


